X: 1
T: Queens Row
%R: march, reel
B: "Twenty Four Country Dances for the Year 1781", Thomas Skillern, ed. p.1 #1
F: http://www.vwml.org/browse/browse-collections-dance-tune-books/browse-skillerns1781#
Z: 2014 John Chambers <jc:trillian.mit.edu>
M: 2/4
L: 1/16
K: D
fe |\
d2A2A2G2 | FGA2 A2d2 | c2d2g2f2 | f2e2 z2fe |\
d2A2A2G2 | FGA2 A2f2 | e3a edcB | A2E2A,2 :|
|: cd |\
e3f ecBA | d3ef2g2 | f2b2 fedc | c2B2 z2AG |\
F2D2A2F2 | f2ed c2BA | a3b afef | d2A2D2 :|
%%begintext align
%%   First Cu. Cast down one Cu. and 4 Hands
%% with the 3d .| Cast up again & 4 Hands with the
%% 2d :| Cross over one Cu. figure thro' the top :|.
%% 4 Hands at bottom Right and Left at top :|:
%%endtext

%%sep 1 1 500
%%sep 1 1 500
